src/placeholder.svg

<?xml version="1.0" encoding="UTF-8" standalone="no"?>
<!-- Created with Inkscape (http://www.inkscape.org/) -->

<svg
   xmlns:dc="http://purl.org/dc/elements/1.1/"
   xmlns:cc="http://creativecommons.org/ns#"
   xmlns:rdf="http://www.w3.org/1999/02/22-rdf-syntax-ns#"
   xmlns:svg="http://www.w3.org/2000/svg"
   xmlns="http://www.w3.org/2000/svg"
   xmlns:sodipodi="http://sodipodi.sourceforge.net/DTD/sodipodi-0.dtd"
   xmlns:inkscape="http://www.inkscape.org/namespaces/inkscape"
   version="1.0"
   width="315"
   height="315"
   id="svg2"
   inkscape:version="0.48.3.1 r9886"
   sodipodi:docname="No_free_image_-_woman.svg">
  <metadata
     id="metadata12">
    <rdf:RDF>
      <cc:Work
         rdf:about="">
        <dc:format>image/svg+xml</dc:format>
        <dc:type
           rdf:resource="http://purl.org/dc/dcmitype/StillImage" />
      </cc:Work>
    </rdf:RDF>
  </metadata>
  <sodipodi:namedview
     pagecolor="#ffffff"
     bordercolor="#666666"
     borderopacity="1"
     objecttolerance="10"
     gridtolerance="10"
     guidetolerance="10"
     inkscape:pageopacity="0"
     inkscape:pageshadow="2"
     inkscape:window-width="640"
     inkscape:window-height="480"
     id="namedview10"
     showgrid="false"
     inkscape:zoom="0.74920635"
     inkscape:cx="157.5"
     inkscape:cy="157.5"
     inkscape:window-x="289"
     inkscape:window-y="95"
     inkscape:window-maximized="0"
     inkscape:current-layer="svg2" />
  <defs
     id="defs5" />
  <path
     d="M 189.57927,30.661995 C 199.52336,36.663762 207.94559,38.572944 217.9991,60.327102 C 232.6178,91.959583 232.45737,99.041237 238.59113,88.014338 C 237.41971,90.870756 236.32581,93.698337 237.18072,95.80138 C 238.40307,97.093187 239.62543,96.599161 240.84779,95.80138 C 240.12908,96.851117 241.0988,100.99693 242.82237,97.820245 C 244.04628,95.56447 243.9507,95.512968 243.9507,95.512968 C 244.80228,97.503385 244.34735,99.970285 244.51486,100.70433 C 246.20736,102.83372 247.89985,99.207933 249.59235,95.512968 C 249.96966,98.621285 249.71783,102.02245 247.33569,105.31886 C 252.95765,107.70344 253.08281,100.86413 251.84901,96.089784 C 253.71949,99.151761 255.20464,102.5831 254.10568,108.49135 C 254.76387,109.65098 255.42206,107.07007 256.08025,106.18409 C 255.89019,107.88872 256.0773,110.95821 254.5288,111.44753 C 255.53524,111.81088 256.81311,112.85368 258.68951,110.72652 C 258.88048,115.90328 257.37944,119.43325 250.29756,117.93673 C 252.40533,119.34437 252.74106,129.26741 256.64442,122.04656 C 258.04095,124.20036 255.60951,125.63722 254.45828,130.0499 C 253.76835,140.39089 247.19825,139.04179 243.45706,143.3167 C 242.49189,147.95663 241.67969,149.26081 240.23665,152.68973 C 239.31643,154.87631 245.82529,159.72761 246.07923,150.28157 C 247.14831,159.79174 238.92296,156.19959 236.01512,160.69642 C 234.97229,161.72179 233.81502,162.52488 232.52635,163.0727 C 223.69336,168.527 218.8627,183.33082 215.03723,185.13597 C 213.75164,186.47077 205.52335,186.31364 201.21518,185.56858 C 199.04699,190.83242 197.3403,193.40791 194.23363,196.23971 C 190.80542,203.73202 188.10583,221.08225 198.67644,229.69512 C 216.2224,243.99146 221.57733,248.1998 244.02121,252.98413 C 293.78423,263.59205 289.15443,290.1312 298.58285,311.53275 L 23.468951,311.30407 C 31.59879,291.09335 27.795853,264.26851 77.874558,251.9026 C 96.071742,247.40918 103.52747,243.19088 118.84706,229.91143 C 128.40234,221.62864 126.4653,204.72556 124.34767,195.59079 C 116.73164,194.74151 112.78693,192.64102 111.37186,189.67841 C 107.72383,189.68081 103.76545,190.34952 103.75564,182.5403 C 93.880856,187.17575 89.417687,179.40971 84.856105,171.86917 C 80.342174,169.61738 74.751737,170.47331 73.220203,159.6118 L 71.950823,156.07878 C 69.864095,153.10199 70.831174,148.92432 71.034055,145.04715 C 72.373952,147.0948 73.149677,147.59979 74.489574,148.36385 C 64.432794,136.22187 70.436656,128.81667 69.059476,119.23457 C 71.547572,120.63186 73.604901,119.93078 75.688419,118.72986 L 71.316141,117.72043 C 71.316141,117.72043 89.423371,117.37749 79.77862,116.27838 C 72.334442,115.43005 72.726556,111.15913 72.726556,111.15913 C 74.89172,112.39062 76.832923,114.04377 79.002895,112.09646 C 78.988877,109.52339 79.753111,107.44001 82.176319,106.40041 C 79.112896,101.81659 84.079011,90.586691 81.753198,85.562867 C 83.13128,86.541776 84.058398,88.827078 86.47808,86.788604 C 88.022025,82.644243 88.839894,81.143713 91.132445,80.443612 C 92.50616,76.306054 94.58046,73.386193 97.831905,72.512372 C 97.831905,72.512372 102.08078,58.812956 105.02501,53.982109 C 112.19983,42.209808 115.2505,39.674768 128.79047,31.022505 C 142.11331,22.508995 152.49672,22.02835 159.18487,25.470636 C 163.00363,27.436091 165.49647,27.705804 167.22423,27.705805 C 172.19593,27.705805 176.02342,22.480346 189.57927,30.661995 z "
     style="fill:#ccc;fill-rule:evenodd;stroke:none;stroke-width:1px;stroke-linecap:butt;stroke-linejoin:miter;stroke-opacity:1"
     id="path1873" />
</svg>

<svg xmlns="http://www.w3.org/2000/svg" version="1" width="315" height="315" id="placeholder-svg">
   <path d="M189.58 30.662c9.943 6.002 18.366 7.91 28.42 29.665 14.618 31.633 14.457 38.714 20.591 27.687-1.171 2.857-2.265 5.684-1.41 7.787 1.222 1.292 2.444.798 3.667 0-.719 1.05.25 5.196 1.974 2.02 1.224-2.257 1.129-2.308 1.129-2.308.851 1.99.396 4.457.564 5.191 1.692 2.13 3.385-1.496 5.077-5.191.378 3.108.126 6.51-2.256 9.806 5.622 2.384 5.747-4.455 4.513-9.23 1.87 3.063 3.356 6.494 2.257 12.402.658 1.16 1.316-1.42 1.974-2.307-.19 1.705-.003 4.774-1.551 5.264 1.006.363 2.284 1.406 4.16-.721.191 5.176-1.31 8.706-8.391 7.21 2.107 1.407 2.443 11.33 6.346 4.11 1.397 2.153-1.034 3.59-2.186 8.003-.69 10.34-7.26 8.992-11 13.267-.966 4.64-1.778 5.944-3.221 9.373-.92 2.186 5.588 7.038 5.842-2.408 1.07 9.51-7.156 5.918-10.064 10.414-1.043 1.026-2.2 1.829-3.489 2.377-8.833 5.454-13.663 20.258-17.489 22.063-1.285 1.335-9.514 1.178-13.822.433-2.168 5.263-3.875 7.839-6.981 10.67-3.429 7.493-6.128 24.843 4.442 33.456 17.546 14.296 22.901 18.505 45.345 23.29 49.763 10.607 45.133 37.146 54.562 58.548l-275.114-.229c8.13-20.21 4.327-47.035 54.406-59.401 18.197-4.494 25.652-8.712 40.972-21.992 9.555-8.282 7.618-25.185 5.5-34.32-7.615-.85-11.56-2.95-12.975-5.913-3.648.003-7.607.672-7.616-7.138-9.875 4.636-14.338-3.13-18.9-10.67-4.514-2.253-10.104-1.397-11.636-12.258l-1.27-3.533c-2.086-2.977-1.119-7.155-.916-11.032 1.34 2.048 2.116 2.553 3.456 3.317-10.057-12.142-4.053-19.547-5.43-29.13 2.488 1.398 4.545.697 6.628-.504l-4.372-1.01s18.107-.343 8.463-1.442c-7.445-.848-7.052-5.119-7.052-5.119 2.165 1.232 4.106 2.885 6.276.937-.014-2.573.75-4.656 3.173-5.696-3.063-4.583 1.903-15.813-.423-20.837 1.378.979 2.305 3.264 4.725 1.226 1.544-4.145 2.362-5.645 4.654-6.345 1.374-4.138 3.448-7.058 6.7-7.932 0 0 4.249-13.699 7.193-18.53 7.175-11.772 10.225-14.307 23.765-22.96 13.323-8.513 23.707-8.994 30.395-5.551 3.819 1.965 6.311 2.235 8.04 2.235 4.97 0 8.798-5.226 22.354 2.956z" id="path1873" fill="#ccc" fill-rule="evenodd"/>
</svg>
